X:513
M:C
L:1/8
K:F
e|~f>cf>g a/g/f/e/ d>e|~f>cf>a g2 g>a|~f>cf>g a/g/f/e/ d>e|
~f>d c<A F2 F>e|~f>cf>g a/g/f/e/ d>e|f>cf>a g2 f>g|a/g/f/e/ f>F A<G G>A|

